X: 10893
T: DUTCH POLKA
R: polka
B: K\"ohler's Violin Repository, v.1, 1885 p.89 #3
F: http://www.archive.org/details/klersviolinrepos01edin
Z: 2012 John Chambers <jc:trillian.mit.edu>
M: 2/4
L: 1/16
K: D
|:\
vA2d2d2d2 | (cd)ec d4 | A2f2f2f2 | (ef)ge f4 |\
a2a2f2d2 | g2g2e2c2 | dfed cedB | A2aa a2z2 :|
|:\
vf2{g}fe d2a2 | g2{a}ge c2A2 | d2(dc) B2e2 | dcBA f2d2 |\
f2{g}fe d2a2 | g2{a}ge c2A2 | B2e2A2d2 | (dc)Bc d4 :|

%%sep 2 1 500

